svgs/thin/square-m.svg

<svg xmlns="http://www.w3.org/2000/svg" viewBox="0 0 448 512"><!--! Font Awesome Pro 6.3.0 by @fontawesome - https://fontawesome.com License - https://fontawesome.com/license (Commercial License) Copyright 2023 Fonticons, Inc. --><path d="M384 32H64C28.65 32 0 60.65 0 96v320c0 35.35 28.65 64 64 64h320c35.35 0 64-28.65 64-64V96C448 60.65 419.3 32 384 32zM432 416c0 26.47-21.53 48-48 48H64c-26.47 0-48-21.53-48-48V96c0-26.47 21.53-48 48-48h320c26.47 0 48 21.53 48 48V416zM346.4 128.4c-3.312-1.078-7 .2187-8.969 3.109L224 296.4L110.6 131.5c-1.984-2.891-5.625-4.188-8.969-3.109C98.28 129.4 96 132.5 96 136v240C96 380.4 99.58 384 104 384s8-3.578 8-8V161.8l105.4 153.3c3 4.344 10.19 4.344 13.19 0L336 161.8V376c0 4.422 3.578 8 8 8S352 380.4 352 376v-240C352 132.5 349.7 129.4 346.4 128.4z"/></svg>

<svg xmlns="http://www.w3.org/2000/svg" viewBox="0 0 448 512"><!-- Font Awesome Pro 6.0.0-alpha2 by @fontawesome - https://fontawesome.com License - https://fontawesome.com/license (Commercial License) --><path d="M384 32H64C28.654 32 0 60.654 0 96V416C0 451.346 28.654 480 64 480H384C419.346 480 448 451.346 448 416V96C448 60.654 419.346 32 384 32ZM432 416C432 442.467 410.467 464 384 464H64C37.533 464 16 442.467 16 416V96C16 69.533 37.533 48 64 48H384C410.467 48 432 69.533 432 96V416ZM346.375 128.359C343.063 127.281 339.375 128.578 337.406 131.469L224 296.422L110.594 131.469C108.609 128.578 104.969 127.281 101.625 128.359C98.281 129.406 96 132.5 96 136V376C96 380.422 99.578 384 104 384S112 380.422 112 376V161.75L217.406 315.078C220.406 319.422 227.594 319.422 230.594 315.078L336 161.75V376C336 380.422 339.578 384 344 384S352 380.422 352 376V136C352 132.5 349.719 129.406 346.375 128.359Z"/></svg>
